X: 7198
T:Hambo 104
R:Hambo-polska
C:e. Ceylon Wallin
Z: John Chambers <jc@eddie.mit.edu>
P:B\aa{}tsman D\"ack
M:3/4
L:1/8
O:Sweden
K:G
|: "G"D>G B>G D>G | .B2 B4 | c>B A>G F>G | "D7".A2 A4 \
| D>F A>F D>F |  .c2 c4 | d>c B>A G>A | "G".B2 B4 :| \
|: "C"e2 e>d c>e | "G"d>d- d>c B>d | "D7"c>B A>G F>A | "G"G2 (3BGB d2 \
| "C"e2 e>d c>e | "G"d>d- d>c B>d | "D7"c>B A>G F>A | "G".G2 G4 :|
